modules/hawcons-filled/icons/icon-27-one-finger-click.svg

<?xml version="1.0" encoding="UTF-8" standalone="no"?>
<svg width="32px" height="32px" viewBox="0 0 32 32" version="1.1" xmlns="http://www.w3.org/2000/svg" xmlns:xlink="http://www.w3.org/1999/xlink" xmlns:sketch="http://www.bohemiancoding.com/sketch/ns">
    <!-- Generator: Sketch 3.0.3 (7891) - http://www.bohemiancoding.com/sketch -->
    <title>icon 27 one finger click</title>
    <desc>Created with Sketch.</desc>
    <defs></defs>
    <g id="Page-1" stroke="none" stroke-width="1" fill="none" fill-rule="evenodd" sketch:type="MSPage">
        <g id="icon-27-one-finger-click" sketch:type="MSArtboardGroup" fill="#929292">
            <path d="M13.407436,1 L13.407436,5 L14.407436,5 L14.407436,1 L13.407436,1 L13.407436,1 Z M19.8099435,3.57686389 L16.7013597,6.09414546 L17.3306801,6.87129142 L20.4392639,4.35400985 L19.8099435,3.57686389 L19.8099435,3.57686389 Z M21.8148721,10.3124234 L17.9173918,9.41261918 L17.6924408,10.3869892 L21.589921,11.2867935 L21.8148721,10.3124234 L21.8148721,10.3124234 Z M6.22495105,11.2867935 L10.1224313,10.3869892 L9.89748026,9.41261918 L6,10.3124234 L6.22495105,11.2867935 L6.22495105,11.2867935 Z M7.37560816,4.35400985 L10.484192,6.87129142 L11.1135124,6.09414546 L8.00492855,3.57686389 L7.37560816,4.35400985 L7.37560816,4.35400985 Z M19.407436,13.4908981 C19.407436,12.6674978 18.7416388,12 17.907436,12 C17.0790089,12 16.407436,12.6762201 16.407436,13.4908981 L16.407436,15.4325233 L16.407436,18 L15.407436,18 L15.407436,15.5 L15.407436,8.50863659 C15.407436,7.67543961 14.7416388,7 13.907436,7 C13.0790089,7 12.407436,7.66642015 12.407436,8.50863659 L12.407436,18.7983451 C10.3490364,16.5979243 7.63906582,14.1791206 6.52846875,15.2957153 C5.44129897,16.3887562 8.24279803,19.4007216 12.1548115,25.9830936 C13.9174319,28.9488875 16.1477209,30.9995418 19.907436,31 C24.0495719,31 27.407436,27.6421358 27.407436,23.5 L27.407436,20.2468012 L27.407436,15.5063976 C27.407436,14.6744372 26.7416388,14 25.907436,14 C25.0790089,14 24.407436,14.6764628 24.407436,15.5063976 L24.407436,17.7497253 L24.407436,18 L23.407436,18 L23.407436,15.6781559 L23.407436,14.4912653 C23.407436,13.6676622 22.7416388,13 21.907436,13 C21.0790089,13 20.407436,13.6625444 20.407436,14.4912653 L20.407436,15.5082011 L20.407436,17 L19.407436,17 L19.407436,15.5082011 L19.407436,13.4908981 L19.407436,13.4908981 Z" id="one-finger-click" sketch:type="MSShapeGroup"></path>
        </g>
    </g>
</svg>

<svg width="32" height="32" viewBox="0 0 32 32" xmlns="http://www.w3.org/2000/svg"><path d="M13.407 1v4h1V1h-1zm6.403 2.577L16.7 6.094l.63.777 3.108-2.517-.63-.777zm2.005 6.735l-3.898-.9-.225.975 3.898.9.225-.975zm-15.59.975l3.897-.9-.225-.974-3.897.9.225.974zm1.15-6.933l3.11 2.517.629-.777-3.11-2.517-.628.777zm12.032 9.137c0-.824-.665-1.491-1.5-1.491-.828 0-1.5.676-1.5 1.49V18h-1V8.509a1.5 1.5 0 1 0-3 0v10.29c-2.058-2.201-4.768-4.62-5.879-3.503-1.087 1.093 1.715 4.105 5.627 10.687C13.917 28.95 16.148 31 19.907 31a7.5 7.5 0 0 0 7.5-7.5v-7.993a1.5 1.5 0 1 0-3 0V18h-1V14.491c0-.823-.665-1.491-1.5-1.491-.828 0-1.5.663-1.5 1.491V17h-1v-3.509z" fill="#929292" fill-rule="evenodd"/></svg>
